img/shap-1.svg

<svg width="425" height="1119" fill="none" xmlns="http://www.w3.org/2000/svg"><g opacity=".6"><g opacity=".08" stroke="#7D869D" stroke-width="10" stroke-miterlimit="10" stroke-linecap="round"><path d="M159.973 107.193c1.801 20.377 14.688 60.52 51.518 72.698-29.241-.642-38.502 14.177-38.502 14.177s39.322 4.057 59.532 21.734c-8.414 8.746-24.762 9.732-33.527 4.678 19.533 45.311 98.575 33.675 115.261 11.338 16.686-22.336 18.05-72.591-5.434-92.914-23.485-20.323-25.882-35.772-25.882-35.772s-10.239 12.677-.648 35.966c-13.511-28.483-35.402-37.381-44.606-36.031 14.975 14.122 14.911 35.253 13.734 34.07-40.643-40.942-91.446-29.944-91.446-29.944zm68.03 52.243c12.922 12.467 82.07 71.701 112.949 91.238m-81.91-63.819c-9.415-1.736-20.318-.507-26.075 1.599m28.911.691c-1.338-1.7.005-20.587-7.113-27.681"/><path d="M266.973 226.734c8.543-.532 19.72-4.324 25.899-11.974 2.747-3.404 6.002-14.971 3.493-24.424"/></g></g><g opacity=".6"><path d="M209.319 841.546C177.518 862.794 70.503 942.42 88.733 1077.32c119.215-47.2 120.586-235.774 120.586-235.774zM91.215 1072.47s92.371-202.657 113.043-222.619m-52.487 95.714c.336-.679 30.718-22.962 30.718-22.962m-42.036 45.088l51.53-33.635m-86.197 108.364c.395-2.34 59.401-39.3 59.401-39.3" opacity=".08" stroke="#505666" stroke-width="10" stroke-miterlimit="10" stroke-linecap="round"/></g></svg>

<svg width="425" height="1119" viewBox="0 0 425 1119" fill="none" xmlns="http://www.w3.org/2000/svg">
<g opacity="0.6">
<g opacity="0.08">
<path d="M159.973 107.193C161.774 127.57 174.661 167.713 211.491 179.891C182.25 179.249 172.989 194.068 172.989 194.068C172.989 194.068 212.311 198.125 232.521 215.802C224.107 224.548 207.759 225.534 198.994 220.48C218.527 265.791 297.569 254.155 314.255 231.818C330.941 209.482 332.305 159.227 308.821 138.904C285.336 118.581 282.939 103.132 282.939 103.132C282.939 103.132 272.7 115.809 282.291 139.098C268.78 110.615 246.889 101.717 237.685 103.067C252.66 117.189 252.596 138.32 251.419 137.137C210.776 96.195 159.973 107.193 159.973 107.193Z" stroke="#7D869D" stroke-width="10" stroke-miterlimit="10" stroke-linecap="round"/>
<path d="M228.003 159.436C240.925 171.903 310.073 231.137 340.952 250.674" stroke="#7D869D" stroke-width="10" stroke-miterlimit="10" stroke-linecap="round"/>
<path d="M259.042 186.855C249.627 185.119 238.724 186.348 232.967 188.454" stroke="#7D869D" stroke-width="10" stroke-miterlimit="10" stroke-linecap="round"/>
<path d="M261.878 189.145C260.54 187.445 261.883 168.558 254.765 161.464" stroke="#7D869D" stroke-width="10" stroke-miterlimit="10" stroke-linecap="round"/>
<path d="M266.973 226.734C275.516 226.202 286.693 222.41 292.872 214.76C295.619 211.356 298.874 199.789 296.365 190.336" stroke="#7D869D" stroke-width="10" stroke-miterlimit="10" stroke-linecap="round"/>
</g>
</g>
<g opacity="0.6">
<g opacity="0.08">
<path d="M209.319 841.546C177.518 862.794 70.5033 942.42 88.7325 1077.32C207.948 1030.12 209.319 841.546 209.319 841.546Z" stroke="#505666" stroke-width="10" stroke-miterlimit="10" stroke-linecap="round"/>
<path d="M91.2149 1072.47C91.2149 1072.47 183.586 869.813 204.258 849.851" stroke="#505666" stroke-width="10" stroke-miterlimit="10" stroke-linecap="round"/>
<path d="M151.771 945.565C152.107 944.886 182.489 922.603 182.489 922.603" stroke="#505666" stroke-width="10" stroke-miterlimit="10" stroke-linecap="round"/>
<path d="M140.453 967.691L191.983 934.056" stroke="#505666" stroke-width="10" stroke-miterlimit="10" stroke-linecap="round"/>
<path d="M105.786 1042.42C106.181 1040.08 165.187 1003.12 165.187 1003.12" stroke="#505666" stroke-width="10" stroke-miterlimit="10" stroke-linecap="round"/>
</g>
</g>
</svg>
